X: 1
T: the Banks of Inverness
Z: David Barnert DavBarnert@aol.com
M: 2/4
L: 1/8
K: G
G \
| "G"D>E DB, | "G"DE G>A | "G"Bd "D7"A/c/B/A/ | "Em"GE "C"E2 \
| "G"D>E DB, | "G"DE G>A | "G"Bd "D7"AB/A/ | "G"G3 :|
A \
| "G"Bd dc/B/ | "C"ce e2 | "G"Bd "D7"A/c/B/A/ | "Em"GE "C"E2 \
| "G"Bd dc/B/ | "C"ce e>f | "Em"ge "D"fd | "Em"e3 |]
f \
| "Em"ge "D"fd | "Em"e/f/e/d/ "D7"BA | "G"Bd "D7"A/c/B/A/ | "Em"GE "C"E2 \
| "G"D>E DB, | "G"DE G>A | "G"Bd "D7"AB/A/ | "G"G3 |]
